X: 28258
T: Mrs. Judge
R: reel
M: 4/4
K: Eminor
ED|B,2 E2 E2 G2|FGFE D2 B2|BAGF AGFE|D4 B,2B,2|
E2F2 G2A2|BcBA G2e2|efg2 B2 g2|f4 e2e2|
edB2 B2 e2|dedB G2B2|AGFG A2G2|F4 E2D2|
B2G2 c2A2|d2B2 e2B2|cBAG BAGF|E4 E2:|
GA|B2B2 c2B2|BAGF G2d2|efg2 B2g2|efg2 B2g2|
fga2 d2a2|gfge babg|dBde BABc|B4 B2g2|
gfef g2f2|e3f e2dc|B2cB A2G2|G2F2 E2D2|
EFGA B2e2|DEFG A2d2|BABG BAGF|E4 E2:|
M:6/8
E/E/|EGB EGB|GA/G/F/E/ FB,B,|DdF EeB|GA/G/F/G/ E2:|
B/B/|Bdg Bdg|g/f/e/d/e/f/ gdB|cc/B/A/G/ AdD|BeE e2d|
e/d/B/d/e d/B/A/B/d|B/A/G/A/B/G/ AFD|E/F/GE F/G/AF|G/A/BB,E2:|

